modules/hawcons-filled/icons/icon-116-lock-open.svg

<?xml version="1.0" encoding="UTF-8" standalone="no"?>
<svg width="32px" height="32px" viewBox="0 0 32 32" version="1.1" xmlns="http://www.w3.org/2000/svg" xmlns:xlink="http://www.w3.org/1999/xlink" xmlns:sketch="http://www.bohemiancoding.com/sketch/ns">
    <!-- Generator: Sketch 3.0.3 (7891) - http://www.bohemiancoding.com/sketch -->
    <title>icon 116 lock open</title>
    <desc>Created with Sketch.</desc>
    <defs></defs>
    <g id="Page-1" stroke="none" stroke-width="1" fill="none" fill-rule="evenodd" sketch:type="MSPage">
        <g id="icon-116-lock-open" sketch:type="MSArtboardGroup" fill="#929292">
            <path d="M16,23.9146472 L16,26.5089948 C16,26.7801695 16.2319336,27 16.5,27 C16.7761424,27 17,26.7721195 17,26.5089948 L17,23.9146472 C17.5825962,23.708729 18,23.1531095 18,22.5 C18,21.6715728 17.3284272,21 16.5,21 C15.6715728,21 15,21.6715728 15,22.5 C15,23.1531095 15.4174038,23.708729 16,23.9146472 L16,23.9146472 L16,23.9146472 Z M24,9.5 L24,8.499235 C24,4.35752188 20.6337072,1 16.5,1 C12.3578644,1 9,4.35670485 9,8.499235 L9,16.0000125 L9,16.0000125 C7.34233349,16.0047152 6,17.339581 6,19.0094776 L6,28.9905224 C6,30.652611 7.34559019,32 9.00878799,32 L23.991212,32 C25.6529197,32 27,30.6633689 27,28.9905224 L27,19.0094776 C27,17.3503174 25.6591471,16.0047488 24,16 L22.4819415,16 L12.0274777,16 C12.0093222,15.8360041 12,15.6693524 12,15.5005291 L12,8.49947095 C12,6.01021019 14.0147186,4 16.5,4 C18.9802243,4 21,6.01448176 21,8.49947095 L21,9.5 L21,12.1239591 C21,13.1600679 21.6657972,14 22.5,14 C23.3284271,14 24,13.1518182 24,12.1239591 L24,9.5 L24,9.5 L24,9.5 Z" id="lock-open" sketch:type="MSShapeGroup"></path>
        </g>
    </g>
</svg>

<svg width="32" height="32" viewBox="0 0 32 32" xmlns="http://www.w3.org/2000/svg"><path d="M16 23.915v2.594a.5.5 0 0 0 1 0v-2.594a1.5 1.5 0 1 0-1 0zM24 9.5v-1a7.5 7.5 0 1 0-15 0V16c-1.658.005-3 1.34-3 3.01v9.98A3.008 3.008 0 0 0 9.009 32H23.99A3.002 3.002 0 0 0 27 28.99v-9.98c0-1.66-1.34-3.005-3-3.01H12.027a4.538 4.538 0 0 1-.027-.5v-7C12 6.01 14.015 4 16.5 4 18.98 4 21 6.014 21 8.5v3.624C21 13.16 21.666 14 22.5 14c.828 0 1.5-.848 1.5-1.876V9.5z" fill="#929292" fill-rule="evenodd"/></svg>
